X:985
T: Maid of the Glen
T: Ainnir an Ghleanna
S: B.Breathnach:"Ceol Rince na hEireann" IV/169
Z: B.Black
L: 1/8
M: 4/4
R: reel
K: D
A2 Ac d2 dB|A2 AF FEEF|A2 Ac d2 de|fbba fe e2 :|
adfd addb|adfd bafb|adfd a2 fa|fbba fe e2|
adfd addb|adfd bafb|bgaf gefd|fbba fe e2 ||
